; G-Code generated by Simplify3D(R) Version 5.1.2
; Sep 17, 2024 at 9:38:33 AM
; Settings Summary
;   processName,Process 1
;   autoConfigureMaterial,PC
;   autoConfigureQuality,Fast
;   autoConfigureExtruders,Extruder 2 Only
;   targetModels,NLM_ThinCalabaza
;   profileName,ABS V2.0 0.45 height
;   profileVersion,2024-09-16 14:13:30
;   app,S3D-Software 5.1.2
;   technology,fff
;   baseProfile,Default
;   extruder,Extruder 1
;   toolheadNumber,0
;   nozzleDiameter,1.00000
;   extrusionMultiplier,0.98000
;   extrusionWidthMode,automatic
;   extrusionWidth,1.20000
;   useRetraction,0
;   retractDistance,3.00000
;   extraRestartDistance,0.00000
;   retractVerticalLift,0.00000
;   retractSpeed,600.00000
;   useCoasting,0
;   coastingDistance,0.20000
;   useWiping,0
;   wipingDistance,5.00000
;   speedMaxFlowRate,900.00000
;   toolheadOffsetX,0.00000
;   toolheadOffsetY,0.00000
;   filamentDiameter,2.85000
;   filamentPricePerKilogram,23.80000
;   filamentDensity,1.04000
;   primaryExtruder,Extruder 1
;   layerHeight,0.45000
;   topSolidLayers,3
;   bottomSolidLayers,3
;   outlinePerimeters,2
;   useVaseMode,0
;   useAdaptiveLayerHeights,0
;   minAdaptiveLayerHeight,0.10000
;   maxAdaptiveLayerHeight,0.30000
;   adaptiveSmoothingLevel,5
;   horizontalOuterCompensation,0.00000
;   horizontalInnerCompensation,0.00000
;   firstLayerUnits,percentage
;   firstLayerHeightPercentage,100
;   firstLayerWidthPercentage,100
;   firstLayerSpeedPercentage,30
;   firstLayerHeightAbsolute,0.30000
;   firstLayerWidthAbsolute,0.40000
;   firstLayerSpeedAbsolute,900.00000
;   startPointStrategy,aligned
;   alignStartPointsX,9999.00000
;   alignStartPointsY,9999.00000
;   restrictStartPoints,1
;   perimeterPrintingOrder,outside_in
;   islandPrintingOrder,closest
;   printInfillBeforePerimeters,0
;   useSkirt,0
;   skirtExtruder,Extruder 1
;   skirtLayers,2
;   skirtOffset,0.00000
;   skirtOutlines,2
;   useRaft,0
;   raftExtruder,Extruder 1
;   raftBaseLayers,1
;   raftTopLayers,3
;   raftOffset,4.00000
;   raftSeparationDistance,0.44000
;   raftSpeedUnits,percentage
;   raftSpeedPercentage,30
;   raftSpeedAbsolute,600.00000
;   usePrimePillar,0
;   primePillarExtruder,All Extruders
;   primePillarWidth,12.00000
;   primePillarLocation,north_west
;   primePillarSpeedPercentage,100
;   primePillarInfillPercentage,100
;   autoStopPrimePillar,1
;   primePillarLayersAfterAutoStop,0
;   useOozeShield,0
;   oozeShieldExtruder,All Extruders
;   oozeShieldOffset,2.00000
;   oozeShieldOutlines,1
;   oozeShieldSidewallShape,waterfall
;   oozeShieldSidewallAngle,30
;   oozeShieldSpeedPercentage,100
;   autoStopOozeShield,1
;   oozeShieldLayersAfterAutoStop,0
;   sparseInfillExtruder,Extruder 1
;   sparseInfillPattern,full_honeycomb
;   sparseInfillRotation,0
;   sparseInfillPercentage,15
;   sparseInfillExtrusionWidthPercentage,100
;   sparseInfillCombinedLayers,1
;   denseInfillLayers,0
;   denseInfillPercentage,50
;   infillOutlineOverlapPercentage,8
;   minInfillLength,0.50000
;   externalInfillPattern,rectilinear
;   externalInfillRotation,0
;   solidInfillThresholdArea,25.00000
;   solidInfillExtraExpansion,0.00000
;   useMonotonic,0
;   useDiaphragm,0
;   diaphragmSolidLayers,3
;   diaphragmSpacingLayers,52
;   topLayerExtraExpansion,1.00000
;   topLayerExtrusionModifier,100
;   overrideFanSpeedForTopLayer,0
;   topLayerFanSpeedPercentage,100
;   useIroning,0
;   ironingOutlineOffsetPercentage,50
;   ironingExtrusionWidthPercentage,25
;   ironingExtrusionModifier,15
;   ironingSpeedModifier,30
;   sparseSupportExtruder,Extruder 1
;   sparseSupportInfillPattern,aligned
;   sparseSupportInfillRotation,0
;   sparseSupportInfillPercentage,5
;   sparseSupportOutlines,1
;   sparseSupportCombinedLayers,1
;   upperDenseSupportLayers,1
;   lowerDenseSupportLayers,1
;   denseSupportExtruder,Extruder 1
;   denseSupportInfillPercentage,70
;   denseSupportExtraExpansion,0.00000
;   baseSupportLayers,1
;   supportInflationDistance,0.00000
;   supportHorizontalPartOffset,0.30000
;   supportUpperSeparationLayers,1
;   supportLowerSeparationLayers,1
;   temperatureController,Heated Bed
;   enableTemperatureController,1
;   temperatureNumber,0
;   temperatureType,platform
;   stabilizeAtStartup,1
;   temperatureSetpoints,1|150
;   useIdleCooldown,0
;   cooldownTemperature,150
;   cooldownRequiredIdleTime,180
;   cooldownReheatTime,60
;   temperatureController,Extruder 1
;   enableTemperatureController,1
;   temperatureNumber,0
;   temperatureType,extruder
;   stabilizeAtStartup,1
;   temperatureSetpoints,1|280
;   useIdleCooldown,0
;   cooldownTemperature,150
;   cooldownRequiredIdleTime,180
;   cooldownReheatTime,60
;   temperatureController,Extruder 2
;   enableTemperatureController,1
;   temperatureNumber,1
;   temperatureType,extruder
;   stabilizeAtStartup,1
;   temperatureSetpoints,1|260
;   useIdleCooldown,0
;   cooldownTemperature,150
;   cooldownRequiredIdleTime,180
;   cooldownReheatTime,60
;   fan,Cooling Fan
;   fanNumber,0
;   fanType,extruder
;   blipFanToFullPower,1
;   fanSetpoints,1|100
;   increaseFanForQuickLayers,0
;   fanMaxQuickLayerTime,60.00000
;   fanMinQuickLayerTime,15.00000
;   maxQuickLayerFanSpeedPercentage,100
;   defaultPrintSpeed,1680.00000
;   outerPerimeterSpeedPercentage,75
;   innerPerimeterSpeedPercentage,70
;   topLayerSpeedPercentage,50
;   solidInfillSpeedPercentage,75
;   sparseSupportSpeedPercentage,85
;   denseSupportSpeedPercentage,70
;   travelSpeedXY,9000.00000
;   travelSpeedZ,1200.00000
;   reduceSpeedForQuickLayers,1
;   speedMaxQuickLayerTime,30.00000
;   minQuickLayerSpeedPercentage,5
;   reduceSpeedForShortPerimeters,1
;   speedMaxShortPerimeterLength,80.00000
;   minShortPerimeterSpeedPercentage,50
;   reduceSpeedForMaxFlowRate,0
;   accelXY,1000.00000
;   accelZ,150.00000
;   accelE,3000.00000
;   jerkXY,600.00000
;   jerkZ,24.00000
;   jerkE,300.00000
;   exportFileFormat,gcode
;   useStickyCommands,1
;   use5D,1
;   relativeExtrusionDistances,0
;   allowExtruderAxisZeroing,1
;   independentExtruderAxes,0
;   includeM10123,0
;   includeThumbnailImages,0
;   thumbnailImageEncoding,standard
;   thumbnailImageSizes,300|300
;   x3gMachineProfile,r2
;   overrideStepsPerMillimeter,0
;   stepsPerMillimeterX,88.57319
;   stepsPerMillimeterY,88.57319
;   stepsPerMillimeterZ,400.00000
;   stepsPerMillimeterA,96.27520
;   stepsPerMillimeterB,96.27520
;   xyzFileFormatVersion,1
;   makerBotMachineProfile,replicator_5
;   makerBotModelExtruder,mk13
;   makerBotSupportExtruder,mk14_s
;   makerBotModelMaterial,pla
;   makerBotSupportMaterial,pva
;   globalOffsetX,-1.00000
;   globalOffsetY,0.00000
;   globalOffsetZ,0.00000
;   applyToolheadOffsets,0
;   buildVolumeShape,rectangular
;   buildVolumeX,356.00000
;   buildVolumeY,342.00000
;   buildVolumeZ,281.00000
;   buildVolumeDiameter,200.00000
;   originOffsetX,0.00000
;   originOffsetY,0.00000
;   originOffsetZ,0.00000
;   homingDirectionX,min
;   homingDirectionY,min
;   homingDirectionZ,min
;   mirrorVisualX,0
;   mirrorVisualY,1
;   mirrorVisualZ,0
;   machineBackgroundModel,
;   startingScript,;START CODE FROM APEX||M601 S255            ;Turn lights on|M106 P2 S0           ;Turn center fan off for quick nozzle heating||;Special Bed Prep Off|M104 T0 S300          ; Set nozzle 1 to temp|M104 T1 S280          ; Set nozzle 2 to temp|M140 S150               ; Set bed to temp|M141 S50                 ; Heat Chamber||T0                           ; First nozzle|G21                          ; Metric values|G90                          ; Absolute positioning|M82                          ; Set extruder to absolute mode|M107                         ; Start with the fan off|G92 E0                       ; Set extruder to 0|G28 Z0                       ; Home Z|G28 X0 Y0                  ; Home X and Y|G0 Z0  F900                ; Bring up Z||M109 T0 S280          ; Hold until nozzle 1 at temp|M109 T1 S270          ; Hold until nozzle 2 at temp|M190 S150               ; Hold until bed at temp|M141 S50                 ; Heat Chamber||;BLINK LIGHTS TO INDICATE ITS HOT A READY|M601 S0|G4 P600|M601 S255   |G4 P600|M601 S0|G4 P600|M601 S255   |G4 P600|M601 S0|G4 P600|M601 S255   ||M106 P2 S255          ; Turn center fan back on (speed depends on filament)|M204 S2000             ; Set acceleration for auto-level sequence|G1 E-15 F100           ; Retract filament 15mm to minimize auto-level error|G0 Z3 F900              ; Raise hot end above bed rails|G0 X0 Y350 F9000    ; Quickly move to left of brush|G0 Z0 F900              ; Lower to brush||;LEFT-RIGHT|G0 X25 Y350 F2000     ; Slowly move right across brush in zig zag|G0 X38 Y342 Z-1         ; Slowly move right across brush in zig zag|G0 X51 Y350 Z0          ; Slowly move right across brush in zig zag|G0 X64 Y342 Z-1         ; Slowly move right across brush in zig zag|G0 X77 Y350 Z0          ; Slowly move right across brush in zig zag|G0 X90 Y342 Z-1         ; Slowly move right across brush in zig zag|G0 X105 Y350 Z0         ; Slowly move right across brush in zig zag|G0 X120 Y342 Z-1        ; Slowly move right across brush in zig zag|G0 X120 Y350  Z0        ; Slowly move to the right of the brush||;RIGHT-LEFT|G0 X85 Y350 Z-1 F2000   ; Slowly move left across brush|G0 X25 Y350 Z0              ; Slowly move left across brush||;LEFT-RIGHT|G0 X38 Y342 Z-1         ; Slowly move right across brush in zig zag|G0 X51 Y350 Z0          ; Slowly move right across brush in zig zag|G0 X64 Y342 Z-1         ; Slowly move right across brush in zig zag|G0 X77 Y350 Z0          ; Slowly move right across brush in zig zag|G0 X90 Y342 Z-1         ; Slowly move right across brush in zig zag|G0 X105 Y350 Z0         ; Slowly move right across brush in zig zag|G0 X120 Y342 Z-1        ; Slowly move right across brush in zig zag|G0 X120 Y350  Z0        ; Slowly move to the right of the brush|G1 E-20 F125;             ; Retract more filament||;RIGHT-LEFT|G0 X85 Y350 Z-1 F2000   ; Slowly move left across brush|G0 X45 Y350 Z0          ; Slowly move left across brush||G29                     ; Auto-level|G91                     ; Relative positioning|G0 Z3 F900              ; Lift nozzle 1mm  G0 Z+ NOT recognized by GENESIS board - must use G0 Z1 2  etc. in relative mode|G90                         ; Absolute positioning|G0 X143 Y300 F9000     ; Move right across bed quickly|G0 X143 Y350 F9000     ; Move above dump tank quickly|G0 Z-2 F900             ; Lower nozzle to -2mm||T0                      ; Nozzle 1|G92 E0                  ; Clear filament counter|G1 E30 F100             ; Prime filament 1 into dump tank|G92 E0                  ; Clear filament counter|T1                      ; Nozzle 2|G92 E0                  ; Clear filament counter|G1 E-5 F100             ; Prime filament 2 into dump tank|G92 E0                  ; Clear filament counter|M104 T0 S280             ; Set nozzle 1 back to temp|M104 T1 S270            ; Set nozzle 2 back to temp||G0 X220 Y350 F9000         ; Move right quickly to remove filament|G0 Z1 F900                      ; Raise nozzle to 1 mm over bed|G0 X220 Y300 F9000         ; Move to rear of bed quickly|M201 X850 Y850 Z200 E1000   ; Set acceleration|M400
;   preLayerChangeScript,
;   postLayerChangeScript,
;   preRetractionScript,
;   postRetractionScript,
;   preToolChangeScript,
;   postToolChangeScript,
;   processChangeScript,
;   endingScript,;END CODE FROM APEX||M400|G28                             ; home all|M104 T0 S0                  ; switch off first nozzle|M104 T1 S0                 ; switch off second nozzle|M140 S50                      ; heated bed heater 50 C|M141 S30                       ; chamber heaters 30 C|M106 P2 S255  ; Fans on 100%||T0||M84                            ; steppers off|G90                             ; absolute positioning||;LIGHT AND COOL DOWN SEQUENCE||M601 S0|G4 P6000|M601 S255|G4 P6000|M601 S0|G4 P6000|M601 S255|G4 P6000|M601 S0|G4 P6000|M601 S255|G4 P6000|M601 S0|G4 P6000|M601 S255|G4 P6000|M601 S0|G4 P6000|M601 S255|G4 P600|M601 S0|G4 P6000|M601 S255|G4 P6000||M107                            ; fans off|M140 S0                      ; heated bed heater off|M141 S0                       ; chamber heaters off||M601 S0                         ;Turn lights off
;   postProcessingScript,
;   useBridging,1
;   bridgingThresholdArea,25.00000
;   bridgingInfillExtraExpansion,1.00000
;   bridgingExtrusionModifier,120
;   bridgingSpeedModifier,40
;   overrideFanSpeedForBridging,0
;   bridgingFanSpeedPercentage,100
;   useFixedBridgingAngle,0
;   fixedBridgingAngle,0
;   applyBridgingToPerimeters,0
;   bridgingPerimeterExtraOverlap,0.00000
;   minBridgingPerimeterLength,10.00000
;   useToolChangeRetraction,1
;   toolChangeRetractDistance,2.00000
;   toolChangeExtraRestartDistance,-0.50000
;   toolChangeRetractSpeed,1200.00000
;   toolChangePrimeOnFirstUse,0
;   toolChangeRetractAtEnd,0
;   externalThinWallType,perimeters_only
;   internalThinWallType,perimeters_only
;   thinWallAllowedOverlapPercentage,8
;   singleExtrusionMinLength,0.50000
;   singleExtrusionMinWidthPercentage,95
;   singleExtrusionMaxWidthPercentage,105
;   singleExtrusionEndpointExtensionDistance,0.01000
;   onlyRetractWhenCrossingOutlines,0
;   retractBetweenLayers,0
;   retractOnTopLayers,0
;   useRetractionMinTravel,0
;   retractionMinTravel,1.00000
;   useRetractionMinExtrusion,0
;   retractionMinExtrusion,3.00000
;   onlyVerticalLiftOnTopLayers,0
;   retractWhileWiping,0
;   wipingMode,outer_perimeter
;   avoidCrossingOutlines,0
;   maxMovementDetourFactor,999.00000
;   openLoopSlicingBehavior,heal
;   openLoopThickenWidth,0.50000
;   slicingRegionRepairMode,positive
G90
M82
M106 S255 P0
M140 S150
M190 S150
M104 S280 T0
M104 S260 T1
M109 S280 T0
M109 S260 T1
;START CODE FROM APEX
M601 S255            ;Turn lights on
M106 P2 S0           ;Turn center fan off for quick nozzle heating
;Special Bed Prep Off
M104 T0 S300          ; Set nozzle 1 to temp
M104 T1 S280          ; Set nozzle 2 to temp
M140 S150               ; Set bed to temp
M141 S50                 ; Heat Chamber
T0                           ; First nozzle
G21                          ; Metric values
G90                          ; Absolute positioning
M82                          ; Set extruder to absolute mode
M107                         ; Start with the fan off
G92 E0                       ; Set extruder to 0
G28 Z0                       ; Home Z
G28 X0 Y0                  ; Home X and Y
G0 Z0  F900                ; Bring up Z
M109 T0 S280          ; Hold until nozzle 1 at temp
M109 T1 S270          ; Hold until nozzle 2 at temp
M190 S150               ; Hold until bed at temp
M141 S50                 ; Heat Chamber
;BLINK LIGHTS TO INDICATE ITS HOT A READY
M601 S0
G4 P600
M601 S255   
G4 P600
M601 S0
G4 P600
M601 S255   
G4 P600
M601 S0
G4 P600
M601 S255   
M106 P2 S255          ; Turn center fan back on (speed depends on filament)
M204 S2000             ; Set acceleration for auto-level sequence
G1 E-15 F100           ; Retract filament 15mm to minimize auto-level error
G0 Z3 F900              ; Raise hot end above bed rails
G0 X0 Y350 F9000    ; Quickly move to left of brush
G0 Z0 F900              ; Lower to brush
;LEFT-RIGHT
G0 X25 Y350 F2000     ; Slowly move right across brush in zig zag
G0 X38 Y342 Z-1         ; Slowly move right across brush in zig zag
G0 X51 Y350 Z0          ; Slowly move right across brush in zig zag
G0 X64 Y342 Z-1         ; Slowly move right across brush in zig zag
G0 X77 Y350 Z0          ; Slowly move right across brush in zig zag
G0 X90 Y342 Z-1         ; Slowly move right across brush in zig zag
G0 X105 Y350 Z0         ; Slowly move right across brush in zig zag
